X:6219
T:Sporting Nell
O:england
M:4/4
L:1/8
R:reel
K:G
AD (3FEF A2 dc|AcGc EFGE|AD (3FEF Addc|AcGc EF (3EFG|AD (3FEF Addc|A2 G=
F EDEG|AD (3FEF Addc|AcGc EGAB||
c2 ec gcec|(3cBc ec AddB|c2 ec gcec|AcGc EGAB|c2 ec gcec|(3cBc ec Adde|=
f2 fd efed cG|(3EFG Ad d2||
